X:1
T:Title
%%score { ( 1 3 ) | ( 2 4 ) }
L:1/8
Q:1/4=100
M:4/4
K:D
V:1 treble nm="Grand Piano"
V:3 treble 
V:2 bass 
V:4 bass 
V:1
 D>D D>E F>E D>E | F2 [GB]2 [FA]4 | B>^A B>[Ac] [Bd]>[Ac] [Bd]>[GB] | [FA]2 F2 E4 | %4
w: C.~Austin~Miles * * * * * * *||||
 D>D D>E F>E D>E | F2 [GB]2 A2- [=FA]2 | c>c c>d c2 B2 |[M:2/4] [CA]4 | A4 | %9
w: |||||
[M:4/4] [Fd]>[Fc] [Fd]>[GB] [FA]<F D>E | [DF]2 [CE]2 D2 F>G | A6 z2 | z4 [GA]4 | %13
w: ||||
 [Fd]>[Fc] [Fd]>[FB] [FA]<F D>[CE] | F2 G2 A2 B>B | A4 [Ge]4 | [Fd]6 z2 |] %17
w: ||||
V:2
 [D,F,]>[D,F,] [D,F,]>[D,G,D] [D,A,D]>[D,G,D] [D,F,]>[D,G,D] | [D,A,D]2 [D,D]2 [D,D]4 | %2
 [G,DG]>[G,DF] [G,DG]>[G,D] [G,D]>[K:bass][G,D] [G,D]>[G,D] | [D,D]2 [F,A,D]2 [A,C]4 | %4
 [D,F,]>[D,F,] [D,F,]>[D,G,D] [D,A,D]>[D,G,D] [D,F,]>[D,G,D] | [D,A,D]2 [D,D]2 [D,D]4 | %6
 [E,A,E]>[E,A,E] [E,A,E]>[E,A,F] [E,^G,E]2 [E,G,D]2 |[M:2/4] [A,,A,]4 | [A,G]4 | %9
[M:4/4] [D,A,]>[D,A,] [D,A,]>[D,D] [D,D]<[D,A,D] [D,F,]>[D,G,D] | [A,,A,]2 [A,,G,]2 [D,F,]2 z2 | %11
 z2 [D,D]>[D,D] [D,D]>[K:treble]G F>D | C4[K:bass] A,2 z2 | %13
 [D,A,]>[D,A,] [D,A,]>[D,D] [D,D]<[D,A,D] [D,F,]>[A,,A,] | %14
 [D,A,D]2 [E,A,C]2 [F,A,D]2[K:treble] [G,D]>[G,D] | [A,F]4[K:bass] [A,,A,]4 | [D,A,]6 z2 |] %17
V:3
 x8 | x8 | x8 | x8 | x8 | z4 F2 z2 | x8 |[M:2/4] x4 | x4 |[M:4/4] x8 | x8 | z2 F>F F>B A>F | %12
 E4 z2 A,2 | x8 | x8 | x8 | x8 |] %17
V:4
 x8 | x8 | x11/2[K:bass] x5/2 | x8 | x8 | x8 | x8 |[M:2/4] x4 | x4 |[M:4/4] x8 | x8 | %11
 x11/2[K:treble] x5/2 | z2 A,>[K:bass]A, z G,F,E, | x8 | x6[K:treble] x2 | x4[K:bass] x4 | x8 |] %17

